wordNet/artwork-relations/parts/fore_result.svg

<?xml version="1.0" encoding="UTF-8" standalone="no"?>
<!-- Created with Inkscape (http://www.inkscape.org/) -->

<svg
   version="1.0"
   width="128"
   height="128"
   id="svg2"
   inkscape:version="1.2.2 (b0a8486541, 2022-12-01)"
   sodipodi:docname="fore_result.svg"
   inkscape:export-filename="causes.png"
   inkscape:export-xdpi="11.25"
   inkscape:export-ydpi="11.25"
   xml:space="preserve"
   xmlns:inkscape="http://www.inkscape.org/namespaces/inkscape"
   xmlns:sodipodi="http://sodipodi.sourceforge.net/DTD/sodipodi-0.dtd"
   xmlns:xlink="http://www.w3.org/1999/xlink"
   xmlns="http://www.w3.org/2000/svg"
   xmlns:svg="http://www.w3.org/2000/svg"
   xmlns:rdf="http://www.w3.org/1999/02/22-rdf-syntax-ns#"
   xmlns:cc="http://creativecommons.org/ns#"
   xmlns:dc="http://purl.org/dc/elements/1.1/"><metadata
     id="metadata23"><rdf:RDF><cc:Work
         rdf:about=""><dc:format>image/svg+xml</dc:format><dc:type
           rdf:resource="http://purl.org/dc/dcmitype/StillImage" /><dc:title /></cc:Work></rdf:RDF></metadata><sodipodi:namedview
     pagecolor="#ffffff"
     bordercolor="#666666"
     borderopacity="1"
     objecttolerance="10"
     gridtolerance="10"
     guidetolerance="10"
     inkscape:pageopacity="0"
     inkscape:pageshadow="2"
     inkscape:window-width="1920"
     inkscape:window-height="1113"
     id="namedview21"
     showgrid="false"
     inkscape:zoom="6.7890625"
     inkscape:cx="63.926352"
     inkscape:cy="64"
     inkscape:window-x="0"
     inkscape:window-y="0"
     inkscape:window-maximized="1"
     inkscape:current-layer="svg2"
     inkscape:showpageshadow="2"
     inkscape:pagecheckerboard="0"
     inkscape:deskcolor="#d1d1d1" /><defs
     id="defs5"><linearGradient
       id="linearGradient19282"
       gradientTransform="matrix(0,0,0,0,7149937600,20426092000)"
       inkscape:swatch="solid"><stop
         style="stop-color:#666666;stop-opacity:1;"
         offset="0"
         id="stop19284" /></linearGradient></defs><g
     transform="translate(-1341.5742,-667.13782)"
     id="zoom-original"
     inkscape:label="#g6809"><g
       transform="matrix(0.996399,0,0,1,95.08523,-222.9354)"
       id="zoom_1_to_1"><use
         xlink:href="#g5796"
         transform="matrix(1,0,0,0.997925,-0.04089,0.477615)"
         x="0"
         y="0"
         id="use5816"
         width="1250"
         height="1250" /></g></g><g
     transform="matrix(0.99218952,0,0,1,-1340.2375,-666.57532)"
     id="zoom-half-size"
     inkscape:label="#g6895"><use
       xlink:href="#g5796"
       height="1250"
       width="1250"
       id="use5818"
       y="0"
       x="0"
       transform="matrix(0.996399,0,0,0.997925,95.044487,-202.45778)" /></g><g
     id="g11074"
     transform="matrix(1,0,0,0.99801946,-1317.0742,-1147.9238)" /><g
     id="g11109"
     transform="translate(-1317.0742,-1169)" /><g
     id="g11198"
     transform="translate(-1317.0742,-1169)" /><g
     id="g11329"
     transform="translate(-1297.0742,-1169)" /><g
     id="zoom-fit-selection"
     inkscape:label="#zoom_selection"
     transform="translate(-1340.0742,-1149.5)"><g
       transform="translate(0,20)"
       id="g11156"
       inkscape:label="#g11150"><g
         transform="translate(0,19.96825)"
         id="g11158"><g
           transform="matrix(1,0,0,0.99801946,0,21.076212)"
           id="g11160" /></g></g></g><g
     id="g11563"
     inkscape:label="#zoom_select"
     transform="translate(-1340.0742,-1109.5)"><g
       inkscape:label="#zoom_selection"
       id="g11565"><g
         inkscape:label="#g11150"
         id="g11567"
         transform="translate(0,20)"><g
           id="g11569"
           transform="translate(0,19.96825)"><g
             id="g11571"
             transform="matrix(1,0,0,0.99801946,0,21.076212)" /></g></g></g></g><g
     id="g11647"
     transform="translate(-1254.0742,-1069)" /><g
     transform="matrix(-1,0,0,1,-1215.0742,-1069)"
     id="g11659" /><rect
     style="opacity:0.3;fill:url(#linearGradient19282);fill-opacity:1;stroke:none"
     id="rect19405"
     width="0"
     height="1"
     x="-1199.0742"
     y="-551.63782"
     ry="0" /><g
     id="g39728"
     transform="translate(-1317.0742,-1169)" /><g
     transform="translate(-1712.7307,-841.98157)"
     id="g39833" /><use
     transform="translate(-1084.1021,-514.17197)"
     x="0"
     y="0"
     id="use5704"
     width="1250"
     height="1250"
     xlink:href="#rect4442" /><g
     style="fill:none"
     transform="matrix(0.90013776,0,0,0.8929798,-1435.118,-640.61304)"
     id="g14408" /><use
     x="0"
     y="0"
     id="use4586"
     transform="matrix(0.692914,0,0,0.70953374,-1400.8883,-814.01402)"
     width="1250"
     height="1250"
     xlink:href="#g5772" /><use
     x="0"
     y="0"
     id="use4586-2"
     transform="matrix(0.695835,0,0,0.741921,-1416.8941,-819.42782)"
     width="1250"
     height="1250"
     xlink:href="#g5772" /><use
     transform="matrix(0.695835,0,0,0.741921,-1372.8941,-821.92782)"
     x="0"
     y="0"
     id="use4589"
     width="1250"
     height="1250"
     xlink:href="#g5772" /><use
     transform="matrix(0.62897517,0,0,1.1624311,-1298.135,-924.14969)"
     x="0"
     y="0"
     id="use4592"
     width="1250"
     height="1250"
     xlink:href="#g5772" /><use
     transform="translate(-545.0644,-795.33616)"
     x="0"
     y="0"
     id="use3738"
     width="1250"
     height="1250"
     xlink:href="#rect10675" /><use
     transform="translate(-544.098,-778.61365)"
     x="0"
     y="0"
     id="use4635"
     width="1250"
     height="1250"
     xlink:href="#use5758" /><use
     transform="translate(-548.1129,-854.69132)"
     x="0"
     y="0"
     id="use9872"
     width="1250"
     height="1250"
     xlink:href="#g6043" /><use
     height="1250"
     width="1250"
     id="use10185"
     y="0"
     x="0"
     transform="translate(-503.0811,-794.38962)"
     xlink:href="#rect10675" /><use
     transform="translate(-515.0811,-782.38962)"
     x="0"
     y="0"
     id="use10187"
     width="1250"
     height="1250"
     xlink:href="#rect10675" /><use
     transform="translate(-529.06435,-860.73352)"
     x="0"
     y="0"
     id="use9872-0"
     width="1250"
     height="1250"
     xlink:href="#g6043" /><use
     height="1250"
     width="1250"
     id="use10185-8"
     y="0"
     x="0"
     transform="translate(-484.03255,-800.43182)"
     xlink:href="#rect10675" /><use
     transform="translate(-496.03255,-788.43182)"
     x="0"
     y="0"
     id="use10187-8"
     width="1250"
     height="1250"
     xlink:href="#rect10675" /><use
     style="stroke:url(#linearGradient19282);stroke-opacity:1"
     height="1250"
     width="1250"
     transform="matrix(1.1377421,0,0,1.1399698,-736.39724,-790.78227)"
     id="use5845-6"
     y="0"
     x="0"
     xlink:href="#use5756-0-3" /><use
     style="stroke:url(#linearGradient19282);stroke-opacity:1"
     height="1250"
     width="1250"
     transform="matrix(1.1377421,0,0,1.1399698,-741.39693,-783.5538)"
     id="use5845-6-1"
     y="0"
     x="0"
     xlink:href="#use5756-0-3" /><use
     style="stroke:url(#linearGradient19282);stroke-opacity:1"
     height="1250"
     width="1250"
     transform="matrix(1.1377421,0,0,1.1399698,-728.80418,-779.90354)"
     id="use5845-6-1-9"
     y="0"
     x="0"
     xlink:href="#use5756-0-3" /><g
     id="g31444"
     inkscape:label="#zoom_selection"
     transform="translate(-1190.0742,-775.5)"><g
       transform="translate(0,20)"
       id="g31446"
       inkscape:label="#g11150"><g
         transform="translate(0,19.96825)"
         id="g31448"><g
           transform="matrix(1,0,0,0.99801946,0,21.076212)"
           id="g31450" /></g></g></g><style
     type="text/css"
     id="style8">
      .Border { fill: lightGray; stroke: black; stroke-width: 4; }
      .Label { font-size:24; font-family:Arial; fill:black; }
   </style><style
     type="text/css"
     id="style8-7">
      .Border { fill: lightGray; stroke: black; stroke-width: 4; }
      .Label { font-size:24; font-family:Arial; fill:black; }
   </style><style
     type="text/css"
     id="style8-3">
      .Border { fill: lightGray; stroke: black; stroke-width: 4; }
      .Label { font-size:24; font-family:Arial; fill:black; }
   </style><style
     type="text/css"
     id="style8-6">
      .Border { fill: lightGray; stroke: black; stroke-width: 4; }
      .Label { font-size:24; font-family:Arial; fill:black; }
   </style><style
     id="style8-1"
     type="text/css">
      .Border { fill: lightGray; stroke: black; stroke-width: 4; }
      .Label { font-size:24; font-family:Arial; fill:black; }
   </style><style
     id="style8-7-0"
     type="text/css">
      .Border { fill: lightGray; stroke: black; stroke-width: 4; }
      .Label { font-size:24; font-family:Arial; fill:black; }
   </style><style
     id="style8-3-2"
     type="text/css">
      .Border { fill: lightGray; stroke: black; stroke-width: 4; }
      .Label { font-size:24; font-family:Arial; fill:black; }
   </style><style
     id="style8-6-7"
     type="text/css">
      .Border { fill: lightGray; stroke: black; stroke-width: 4; }
      .Label { font-size:24; font-family:Arial; fill:black; }
   </style><g
     id="Notification"
     transform="translate(-1322.568,-1368.6492)" /><g
     transform="translate(-1519.5942,-603.83152)"
     id="zoom-original-9"
     inkscape:label="#g6809"><g
       transform="matrix(0.996399,0,0,1,95.08523,-222.9354)"
       id="zoom_1_to_1-1"><use
         xlink:href="#g5796"
         transform="matrix(1,0,0,0.997925,-0.04089,0.477615)"
         x="0"
         y="0"
         id="use5816-2"
         width="1250"
         height="1250" /></g></g><g
     transform="matrix(0.99218952,0,0,1,-1518.2575,-603.26902)"
     id="zoom-half-size-7"
     inkscape:label="#g6895"><use
       xlink:href="#g5796"
       height="1250"
       width="1250"
       id="use5818-0"
       y="0"
       x="0"
       transform="matrix(0.996399,0,0,0.997925,95.044487,-202.45778)" /></g><g
     id="g11074-9"
     transform="matrix(1,0,0,0.99801946,-1495.0942,-1084.6175)" /><g
     id="g11109-3"
     transform="translate(-1495.0942,-1105.6937)" /><g
     id="g11198-6"
     transform="translate(-1495.0942,-1105.6937)" /><g
     id="g11329-0"
     transform="translate(-1475.0942,-1105.6937)" /><g
     id="zoom-fit-selection-6"
     inkscape:label="#zoom_selection"
     transform="translate(-1518.0942,-1086.1937)"><g
       transform="translate(0,20)"
       id="g11156-2"
       inkscape:label="#g11150"><g
         transform="translate(0,19.96825)"
         id="g11158-6"><g
           transform="matrix(1,0,0,0.99801946,0,21.076212)"
           id="g11160-1" /></g></g></g><g
     id="g11563-8"
     inkscape:label="#zoom_select"
     transform="translate(-1518.0942,-1046.1937)"><g
       inkscape:label="#zoom_selection"
       id="g11565-7"><g
         inkscape:label="#g11150"
         id="g11567-9"
         transform="translate(0,20)"><g
           id="g11569-2"
           transform="translate(0,19.96825)"><g
             id="g11571-0"
             transform="matrix(1,0,0,0.99801946,0,21.076212)" /></g></g></g></g><g
     id="g11647-2"
     transform="translate(-1432.0942,-1005.6937)" /><g
     transform="matrix(-1,0,0,1,-1393.0942,-1005.6937)"
     id="g11659-3" /><rect
     style="opacity:0.3;fill:url(#linearGradient19282);fill-opacity:1;stroke:none"
     id="rect19405-7"
     width="0"
     height="1"
     x="-1377.0941"
     y="-488.33151"
     ry="0" /><g
     id="g39728-5"
     transform="translate(-1495.0942,-1105.6937)" /><g
     transform="translate(-1890.7507,-778.67527)"
     id="g39833-9" /><use
     transform="translate(-1262.1221,-450.86567)"
     x="0"
     y="0"
     id="use5704-2"
     width="1250"
     height="1250"
     xlink:href="#rect4442" /><g
     style="fill:none"
     transform="matrix(0.90013776,0,0,0.8929798,-1613.138,-577.30674)"
     id="g14408-2" /><use
     x="0"
     y="0"
     id="use4586-8"
     transform="matrix(0.692914,0,0,0.70953374,-1578.9083,-750.70772)"
     width="1250"
     height="1250"
     xlink:href="#g5772" /><use
     x="0"
     y="0"
     id="use4586-2-9"
     transform="matrix(0.695835,0,0,0.741921,-1594.9141,-756.12152)"
     width="1250"
     height="1250"
     xlink:href="#g5772" /><use
     transform="matrix(0.695835,0,0,0.741921,-1550.9141,-758.62152)"
     x="0"
     y="0"
     id="use4589-7"
     width="1250"
     height="1250"
     xlink:href="#g5772" /><use
     transform="matrix(0.62897517,0,0,1.1624311,-1476.155,-860.84339)"
     x="0"
     y="0"
     id="use4592-3"
     width="1250"
     height="1250"
     xlink:href="#g5772" /><use
     transform="translate(-723.08438,-732.02986)"
     x="0"
     y="0"
     id="use3738-6"
     width="1250"
     height="1250"
     xlink:href="#rect10675" /><use
     transform="translate(-722.11798,-715.30735)"
     x="0"
     y="0"
     id="use4635-1"
     width="1250"
     height="1250"
     xlink:href="#use5758" /><use
     transform="translate(-726.13288,-791.38502)"
     x="0"
     y="0"
     id="use9872-2"
     width="1250"
     height="1250"
     xlink:href="#g6043" /><use
     height="1250"
     width="1250"
     id="use10185-9"
     y="0"
     x="0"
     transform="translate(-681.10108,-731.08332)"
     xlink:href="#rect10675" /><use
     transform="translate(-693.10108,-719.08332)"
     x="0"
     y="0"
     id="use10187-3"
     width="1250"
     height="1250"
     xlink:href="#rect10675" /><use
     transform="translate(-707.08433,-797.42722)"
     x="0"
     y="0"
     id="use9872-0-1"
     width="1250"
     height="1250"
     xlink:href="#g6043" /><use
     height="1250"
     width="1250"
     id="use10185-8-9"
     y="0"
     x="0"
     transform="translate(-662.05253,-737.12552)"
     xlink:href="#rect10675" /><use
     transform="translate(-674.05253,-725.12552)"
     x="0"
     y="0"
     id="use10187-8-4"
     width="1250"
     height="1250"
     xlink:href="#rect10675" /><use
     style="stroke:url(#linearGradient19282);stroke-opacity:1"
     height="1250"
     width="1250"
     transform="matrix(1.1377421,0,0,1.1399698,-914.41722,-727.47597)"
     id="use5845-6-7"
     y="0"
     x="0"
     xlink:href="#use5756-0-3" /><use
     style="stroke:url(#linearGradient19282);stroke-opacity:1"
     height="1250"
     width="1250"
     transform="matrix(1.1377421,0,0,1.1399698,-919.41691,-720.2475)"
     id="use5845-6-1-8"
     y="0"
     x="0"
     xlink:href="#use5756-0-3" /><use
     style="stroke:url(#linearGradient19282);stroke-opacity:1"
     height="1250"
     width="1250"
     transform="matrix(1.1377421,0,0,1.1399698,-906.82416,-716.59724)"
     id="use5845-6-1-9-4"
     y="0"
     x="0"
     xlink:href="#use5756-0-3" /><g
     id="g31444-5"
     inkscape:label="#zoom_selection"
     transform="translate(-1368.0942,-712.1937)"><g
       transform="translate(0,20)"
       id="g31446-0"
       inkscape:label="#g11150"><g
         transform="translate(0,19.96825)"
         id="g31448-3"><g
           transform="matrix(1,0,0,0.99801946,0,21.076212)"
           id="g31450-6" /></g></g></g><path
     d="M 23.227622,40.902146 H 81.397823 V 99.072347 H 23.227622 Z"
     fill="none"
     id="path520"
     style="stroke-width:1.21188" /><g
     id="g279"
     transform="translate(-10.968008)"><path
       d="M 106.82533,61.516804 92.813027,47.327106 A 3.7247954,3.7247954 0 0 0 88.023996,46.972364 3.370053,3.370053 0 0 0 87.669262,52.2935 l 8.159069,8.159076 H 54.678214 a 3.5474244,3.5474244 0 0 0 0,7.094848 H 95.828331 L 87.669262,75.7065 a 3.370053,3.370053 0 0 0 0.354734,5.321136 3.7247954,3.7247954 0 0 0 4.789031,-0.354742 L 106.82533,66.483196 a 3.370053,3.370053 0 0 0 0,-4.966392 z"
       id="path522"
       style="stroke-width:1.77371" /><path
       d="m 82.85729,92.113324 h -6.247406 a 28.113327,28.113327 0 0 1 0,-56.226654 h 6.247406 a 3.123703,3.123703 0 0 0 2.186591,-0.937111 3.123703,3.123703 0 0 0 0.937111,-2.186591 3.7484436,3.7484436 0 0 0 -0.31237,-1.405667 3.123703,3.123703 0 0 0 -2.811332,-1.718037 h -6.559776 a 34.360823,34.360823 0 0 0 0.156184,68.721468 h 6.403592 a 3.123703,3.123703 0 0 0 2.186591,-0.93711 l 0.624741,-0.78093 a 3.7484436,3.7484436 0 0 0 0.31237,-1.40567 3.123703,3.123703 0 0 0 -3.123702,-3.123698 z"
       id="path524"
       style="stroke-width:1.56185" /></g></svg>

<svg xmlns="http://www.w3.org/2000/svg" xmlns:xlink="http://www.w3.org/1999/xlink" xml:space="preserve" width="128" height="128" version="1.0"><defs><linearGradient id="a" gradientTransform="matrix(0 0 0 0 7149937600 20426092000)"><stop offset="0" style="stop-color:#666;stop-opacity:1"/></linearGradient></defs><use xlink:href="#g5796" width="1250" height="1250" transform="matrix(.9964 0 0 .99792 -1246.53 -889.596)"/><use xlink:href="#g5796" width="1250" height="1250" transform="matrix(.98862 0 0 .99792 -1245.935 -869.033)"/><use xlink:href="#rect4442" width="1250" height="1250" transform="translate(-1084.102 -514.172)"/><use xlink:href="#g5772" width="1250" height="1250" transform="matrix(.69291 0 0 .70953 -1400.888 -814.014)"/><use xlink:href="#g5772" width="1250" height="1250" transform="matrix(.69583 0 0 .74192 -1416.894 -819.428)"/><use xlink:href="#g5772" width="1250" height="1250" transform="matrix(.69583 0 0 .74192 -1372.894 -821.928)"/><use xlink:href="#g5772" width="1250" height="1250" transform="matrix(.62898 0 0 1.16243 -1298.135 -924.15)"/><use xlink:href="#rect10675" width="1250" height="1250" transform="translate(-545.064 -795.336)"/><use xlink:href="#use5758" width="1250" height="1250" transform="translate(-544.098 -778.614)"/><use xlink:href="#g6043" width="1250" height="1250" transform="translate(-548.113 -854.691)"/><use xlink:href="#rect10675" width="1250" height="1250" transform="translate(-503.081 -794.39)"/><use xlink:href="#rect10675" width="1250" height="1250" transform="translate(-515.081 -782.39)"/><use xlink:href="#g6043" width="1250" height="1250" transform="translate(-529.064 -860.734)"/><use xlink:href="#rect10675" width="1250" height="1250" transform="translate(-484.033 -800.432)"/><use xlink:href="#rect10675" width="1250" height="1250" transform="translate(-496.033 -788.432)"/><use xlink:href="#use5756-0-3" width="1250" height="1250" style="stroke:url(#a);stroke-opacity:1" transform="matrix(1.13774 0 0 1.13997 -736.397 -790.782)"/><use xlink:href="#use5756-0-3" width="1250" height="1250" style="stroke:url(#a);stroke-opacity:1" transform="matrix(1.13774 0 0 1.13997 -741.397 -783.554)"/><use xlink:href="#use5756-0-3" width="1250" height="1250" style="stroke:url(#a);stroke-opacity:1" transform="matrix(1.13774 0 0 1.13997 -728.804 -779.904)"/><use xlink:href="#g5796" width="1250" height="1250" transform="matrix(.9964 0 0 .99792 -1424.55 -826.29)"/><use xlink:href="#g5796" width="1250" height="1250" transform="matrix(.98862 0 0 .99792 -1423.955 -805.727)"/><use xlink:href="#rect4442" width="1250" height="1250" transform="translate(-1262.122 -450.866)"/><use xlink:href="#g5772" width="1250" height="1250" transform="matrix(.69291 0 0 .70953 -1578.908 -750.708)"/><use xlink:href="#g5772" width="1250" height="1250" transform="matrix(.69583 0 0 .74192 -1594.914 -756.122)"/><use xlink:href="#g5772" width="1250" height="1250" transform="matrix(.69583 0 0 .74192 -1550.914 -758.622)"/><use xlink:href="#g5772" width="1250" height="1250" transform="matrix(.62898 0 0 1.16243 -1476.155 -860.843)"/><use xlink:href="#rect10675" width="1250" height="1250" transform="translate(-723.084 -732.03)"/><use xlink:href="#use5758" width="1250" height="1250" transform="translate(-722.118 -715.307)"/><use xlink:href="#g6043" width="1250" height="1250" transform="translate(-726.133 -791.385)"/><use xlink:href="#rect10675" width="1250" height="1250" transform="translate(-681.101 -731.083)"/><use xlink:href="#rect10675" width="1250" height="1250" transform="translate(-693.101 -719.083)"/><use xlink:href="#g6043" width="1250" height="1250" transform="translate(-707.084 -797.427)"/><use xlink:href="#rect10675" width="1250" height="1250" transform="translate(-662.053 -737.126)"/><use xlink:href="#rect10675" width="1250" height="1250" transform="translate(-674.053 -725.126)"/><use xlink:href="#use5756-0-3" width="1250" height="1250" style="stroke:url(#a);stroke-opacity:1" transform="matrix(1.13774 0 0 1.13997 -914.417 -727.476)"/><use xlink:href="#use5756-0-3" width="1250" height="1250" style="stroke:url(#a);stroke-opacity:1" transform="matrix(1.13774 0 0 1.13997 -919.417 -720.247)"/><use xlink:href="#use5756-0-3" width="1250" height="1250" style="stroke:url(#a);stroke-opacity:1" transform="matrix(1.13774 0 0 1.13997 -906.824 -716.597)"/><path fill="none" d="M23.228 40.902h58.17v58.17h-58.17Z" style="stroke-width:1.21188"/><path d="m106.825 61.517-14.012-14.19a3.725 3.725 0 0 0-4.789-.355 3.37 3.37 0 0 0-.355 5.322l8.16 8.159h-41.15a3.547 3.547 0 0 0 0 7.094h41.15l-8.16 8.16a3.37 3.37 0 0 0 .355 5.32 3.725 3.725 0 0 0 4.789-.354l14.012-14.19a3.37 3.37 0 0 0 0-4.966z" style="stroke-width:1.77371" transform="translate(-10.968)"/><path d="M82.857 92.113H76.61a28.113 28.113 0 0 1 0-56.226h6.247a3.124 3.124 0 0 0 2.187-.937 3.124 3.124 0 0 0 .937-2.187 3.748 3.748 0 0 0-.312-1.406 3.124 3.124 0 0 0-2.812-1.718h-6.56a34.36 34.36 0 0 0 .157 68.722h6.403a3.124 3.124 0 0 0 2.187-.937l.625-.781a3.748 3.748 0 0 0 .312-1.406 3.124 3.124 0 0 0-3.124-3.124z" style="stroke-width:1.56185" transform="translate(-10.968)"/></svg>
